lib/brands/logos/google.svg

<svg xmlns="http://www.w3.org/2000/svg" fill="none" aria-hidden="true" viewBox="0 0 184 74"><g id="Google"><g id="Group"><path id="Vector" fill="#FF302F" d="M174.258 43.159L179.123 46.4023C177.544 48.7282 173.767 52.7183 167.238 52.7183C159.129 52.7183 153.091 46.445 153.091 38.4646C153.091 29.9722 159.193 24.2109 166.555 24.2109C173.959 24.2109 177.586 30.1002 178.76 33.2795L179.4 34.9012L160.324 42.7962C161.775 45.6555 164.037 47.1065 167.238 47.1065C170.438 47.1065 172.657 45.5275 174.258 43.159ZM159.3 38.0165L172.039 32.7247C171.334 30.9537 169.243 29.6948 166.747 29.6948C163.567 29.6948 159.151 32.5114 159.3 38.0165Z"/><path id="Vector_2" fill="#20B15A" d="M143.894 9.67954H150.039V51.4164H143.894V9.67954Z"/><path id="Vector_3" fill="#3686F7" d="M134.206 25.3202H140.138V50.6696C140.138 61.1892 133.929 65.5208 126.589 65.5208C119.675 65.5208 115.515 60.8691 113.957 57.0923L119.398 54.8305C120.38 57.1563 122.748 59.9089 126.589 59.9089C131.305 59.9089 134.206 56.9856 134.206 51.5231V49.4747H133.993C132.585 51.1817 129.896 52.7181 126.482 52.7181C119.355 52.7181 112.826 46.5087 112.826 38.507C112.826 30.4626 119.355 24.1893 126.482 24.1893C129.875 24.1893 132.585 25.7043 133.993 27.3686H134.206V25.3202ZM134.633 38.507C134.633 33.4713 131.283 29.8012 127.016 29.8012C122.705 29.8012 119.078 33.4713 119.078 38.507C119.078 43.4788 122.705 47.0849 127.016 47.0849C131.283 47.1062 134.633 43.4788 134.633 38.507Z"/><path id="Vector_4" fill="#FF302F" d="M79.0907 38.4003C79.0907 46.6154 72.6893 52.654 64.837 52.654C56.9846 52.654 50.5833 46.5941 50.5833 38.4003C50.5833 30.1425 56.9846 24.1253 64.837 24.1253C72.6893 24.1253 79.0907 30.1425 79.0907 38.4003ZM72.86 38.4003C72.86 33.2792 69.1472 29.7585 64.837 29.7585C60.5267 29.7585 56.8139 33.2792 56.8139 38.4003C56.8139 43.4787 60.5267 47.0422 64.837 47.0422C69.1472 47.0422 72.86 43.4787 72.86 38.4003Z"/><path id="Vector_5" fill="#FFBA40" d="M110.223 38.4646C110.223 46.6797 103.821 52.7183 95.969 52.7183C88.1167 52.7183 81.7153 46.6797 81.7153 38.4646C81.7153 30.2069 88.1167 24.2109 95.969 24.2109C103.821 24.2109 110.223 30.1855 110.223 38.4646ZM103.971 38.4646C103.971 33.3435 100.258 29.8228 95.9477 29.8228C91.6374 29.8228 87.9247 33.3435 87.9247 38.4646C87.9247 43.5431 91.6374 47.1065 95.9477 47.1065C100.279 47.1065 103.971 43.5217 103.971 38.4646Z"/><path id="Vector_6" fill="#3686F7" d="M27.1542 46.4661C18.2137 46.4661 11.2148 39.2539 11.2148 30.3133C11.2148 21.3727 18.2137 14.1605 27.1542 14.1605C31.9766 14.1605 35.4974 16.0596 38.1006 18.4921L42.3895 14.2032C38.7621 10.7251 33.9184 8.0792 27.1542 8.0792C14.9063 8.0792 4.6001 18.0653 4.6001 30.3133C4.6001 42.5612 14.9063 52.5474 27.1542 52.5474C33.769 52.5474 38.7621 50.3709 42.6669 46.3167C46.6784 42.3052 47.916 36.672 47.916 32.1057C47.916 30.676 47.7453 29.2037 47.5533 28.1155H27.1542V34.0474H41.6854C41.2586 37.7602 40.085 40.2994 38.3566 42.0278C36.2655 44.1402 32.9582 46.4661 27.1542 46.4661Z"/></g></g></svg>

<svg xmlns="http://www.w3.org/2000/svg" fill="none" aria-hidden="true" viewBox="0 0 184 74"><path fill="#FF302F" d="m174.258 43.159 4.865 3.243c-1.579 2.326-5.356 6.316-11.885 6.316-8.109 0-14.147-6.273-14.147-14.253 0-8.493 6.102-14.254 13.464-14.254 7.404 0 11.031 5.89 12.205 9.069l.64 1.621-19.076 7.895c1.451 2.86 3.713 4.31 6.914 4.31 3.2 0 5.419-1.578 7.02-3.947ZM159.3 38.017l12.739-5.292c-.705-1.771-2.796-3.03-5.292-3.03-3.18 0-7.596 2.816-7.447 8.322Z"/><path fill="#20B15A" d="M143.894 9.68h6.145v41.736h-6.145V9.68Z"/><path fill="#3686F7" d="M134.206 25.32h5.932v25.35c0 10.52-6.209 14.85-13.549 14.85-6.914 0-11.074-4.65-12.632-8.428l5.441-2.261c.982 2.325 3.35 5.078 7.191 5.078 4.716 0 7.617-2.923 7.617-8.386v-2.048h-.213c-1.408 1.707-4.097 3.243-7.511 3.243-7.127 0-13.656-6.21-13.656-14.211 0-8.044 6.529-14.318 13.656-14.318 3.393 0 6.103 1.515 7.511 3.18h.213V25.32Zm.427 13.187c0-5.036-3.35-8.706-7.617-8.706-4.311 0-7.938 3.67-7.938 8.706 0 4.972 3.627 8.578 7.938 8.578 4.267.021 7.617-3.606 7.617-8.578Z"/><path fill="#FF302F" d="M79.09 38.4c0 8.215-6.4 14.254-14.253 14.254-7.852 0-14.254-6.06-14.254-14.254 0-8.258 6.402-14.275 14.254-14.275 7.852 0 14.254 6.017 14.254 14.275Zm-6.23 0c0-5.12-3.713-8.641-8.023-8.641s-8.023 3.52-8.023 8.641c0 5.079 3.713 8.642 8.023 8.642S72.86 43.48 72.86 38.4Z"/><path fill="#FFBA40" d="M110.223 38.465c0 8.215-6.402 14.253-14.254 14.253-7.852 0-14.254-6.038-14.254-14.253 0-8.258 6.402-14.254 14.254-14.254 7.852 0 14.254 5.975 14.254 14.254Zm-6.252 0c0-5.122-3.713-8.642-8.023-8.642s-8.023 3.52-8.023 8.642c0 5.078 3.712 8.641 8.023 8.641 4.331 0 8.023-3.584 8.023-8.641Z"/><path fill="#3686F7" d="M27.154 46.466c-8.94 0-15.94-7.212-15.94-16.153 0-8.94 7-16.152 15.94-16.152 4.823 0 8.343 1.899 10.947 4.331l4.288-4.289c-3.627-3.478-8.47-6.124-15.235-6.124C14.906 8.08 4.6 18.065 4.6 30.313c0 12.248 10.306 22.234 22.554 22.234 6.615 0 11.608-2.176 15.513-6.23 4.011-4.012 5.249-9.645 5.249-14.211 0-1.43-.17-2.902-.363-3.99H27.154v5.931h14.531c-.426 3.713-1.6 6.252-3.328 7.98-2.091 2.113-5.399 4.44-11.203 4.44Z"/></svg>
